X: 14952
T: Ged Foley's
R: reel
M: 4/4
K: Ddorian
C|:DA (3AAA cAAB|cdBA GFEC|DA (3AAA cAAA|GFEF GcAF|
DA (3AAA cAAB|cdBA GFEC|DAAG FGEF|GFEG FD D:|
G|:Adfd adfd|GAcd efge|Adfd adfd|(3AAA AG ADDG|
Adfd adfd|GAcd efge|fgef decB|(3AAA AG ADD:|

